X:1
T:Title
%%score { ( 1 3 ) | ( 2 4 ) }
L:1/8
M:4/4
K:A
V:1 treble nm="Grand Piano"
V:3 treble 
V:2 bass 
V:4 bass 
V:1
 z4 z2[Q:1/4=96] [A,C][B,D] | [CE][Ec] [Ec]>[DB] [CA]2 [DB]>[CA] | E2- [B,E-]>[DE-] [CE]2 CD | %3
 [CE][Ec] [Ec]>[DB] [CA]2 [DB]>[Ec] | B6 z2 | ec c>B A2 [EG][EA] | BA A>F [CE]2 [CE][CE] | %7
 [EA][EA] [EA]>[FB] c2 B>c |[M:3/4] [CA]6 |[M:1/4] G>A |[M:4/4] B2 B>c d2 c>B | %11
 [CA]2 [CA]>[DB] [Ec]2 [Ec][Ec] | [EB][A^d][Ad][Ad] [Ad]2 [Ac][Ad] | [Ge]4 d2 cd | %14
 ec c>B A2 [EG][EA] | BA A>F [CE]2 [CE][CE] | [EA][EA] [EA]>[FB] c2 B>c |[M:3/4] A6 |] %18
V:2
 z4 z2 [A,,E,][A,,E,] | [A,,A,][A,,A,] [A,,A,]>[A,,E,] [A,,E,]2 [A,,E,]>[A,,E,] | z4 z2 .A,2 | %3
 [A,,A,][A,,A,] [A,,A,]>[A,,E,] [A,,E,]2 [A,,A,]>[A,,A,] | [G,E]2 z2 z4[K:treble] | %5
 [A,CA][A,EA] [A,EA]>[K:bass][A,DE] [A,CE]2 [C,A,][C,A,] | %6
 [D,F,D][D,F,D] [D,F,D]>[D,A,D] [A,,A,]2 [A,,A,][A,,A,] | %7
 [C,A,][C,A,] [C,A,]>[D,A,] [E,A,E]2 [E,G,D]>[E,G,E] |[M:3/4] [A,,A,]6 |[M:1/4] [E,B,E]>[E,F,E] | %10
[M:4/4] [E,G,E]2 [E,G,E]>[E,A,E] [E,B,E]2 [E,A,E]>[E,G,D] | %11
 [A,,A,]2 [A,,E,]>[A,,E,] [A,,A,]2 [A,,A,][A,,A,] | %12
 [B,,G,][B,,B,][B,,B,][B,,B,] [B,,B,]2 [B,,B,][B,,B,] | E,4- [E,EB]2 [A,EA][A,B,A] | %14
 [A,CA][A,EA] [A,EA]>[K:bass][A,DE] [A,CE]2 [C,A,][C,A,] | %15
 [D,F,D][D,F,D] [D,F,D]>[D,A,D] [A,,A,]2 [A,,A,][A,,A,] | %16
 [C,A,][C,A,] [C,A,]>[D,A,] [E,A,E]2 [E,G,D]>[E,G,E] |[M:3/4] z2 F,>^E, =E,2 |] %18
V:3
 x8 | x8 | C2 z2 z4 | x8 | z2 G>F E2 cd | x8 | x8 | x8 |[M:3/4] x6 |[M:1/4] x2 |[M:4/4] x8 | x8 | %12
 x8 | x8 | x8 | x8 | x8 |[M:3/4] [A,C]2 D>D C2 |] %18
V:4
 x8 | x8 | [A,,A,]2 [E,G,]>[E,B,] [A,,A,]2 [A,,E,]-[A,,E,B,] | x8 | %4
 E,2- [E,-B,]>[E,-A,] [E,G,]2[K:treble] [A,E][A,B,E] | x7/2[K:bass] x9/2 | x8 | x8 |[M:3/4] x6 | %9
[M:1/4] x2 |[M:4/4] x8 | x8 | x8 | B,4 z4 | x7/2[K:bass] x9/2 | x8 | x8 |[M:3/4] A,,6 |] %18

